X:454
T: Snder, schweig und lerne leiden (5-50), S. 82f
N: P0724
O: Lothringen
S: MERKELBACH-PINCK, Angelika: Verklingende Weisen, Bd 5, Kassel 1962]
R: geistliches, religiöses Lied]
M: 4/4
L: 1/8
K: D
DEFG | A4A2d2 | dcB2B2A2 | A4
BAG2 | F3GF2E2 | D3CD2E2 | D4
DEFG | A4A2d2 | dcB2B2A2 | A4
BAG2 | F3GF2E2 | D3CD2E2 | D4
A2A2 | F4F4 | F2DFA2A2 | F2E2
A2A2 | F4F4 | F2DFA2A2 | F2E2
DEFG | A4A2d2 | dcB2B2A2 | z4
BAG2 | F3GF2E2 | D3CD2E2 | D4

